static/assets/img/icons/theme/shopping/sort-1.svg

<svg height="24" viewBox="0 0 24 24" width="24" xmlns="http://www.w3.org/2000/svg"><g fill="none" fill-rule="evenodd"><path d="m0 0h24v24h-24z" opacity="0"/><g fill="#000"><rect height="3" rx="1.5" width="16" x="4" y="5"/><path d="m7.5 11h9c.8284271 0 1.5.6715729 1.5 1.5s-.6715729 1.5-1.5 1.5h-9c-.82842712 0-1.5-.6715729-1.5-1.5s.67157288-1.5 1.5-1.5zm3 6h3c.8284271 0 1.5.6715729 1.5 1.5s-.6715729 1.5-1.5 1.5h-3c-.82842712 0-1.5-.6715729-1.5-1.5s.67157288-1.5 1.5-1.5z" opacity=".3"/></g></g></svg>

<svg width="24px" height="24px" viewBox="0 0 24 24" version="1.1" xmlns="http://www.w3.org/2000/svg" xmlns:xlink="http://www.w3.org/1999/xlink">
    <title>Icon For Sort#1</title>
    <g stroke="none" stroke-width="1" fill="none" fill-rule="evenodd">
        <rect opacity="0" x="0" y="0" width="24" height="24"></rect>
        <rect fill="#000000" x="4" y="5" width="16" height="3" rx="1.5"></rect>
        <path d="M7.5,11 L16.5,11 C17.3284271,11 18,11.6715729 18,12.5 C18,13.3284271 17.3284271,14 16.5,14 L7.5,14 C6.67157288,14 6,13.3284271 6,12.5 C6,11.6715729 6.67157288,11 7.5,11 Z M10.5,17 L13.5,17 C14.3284271,17 15,17.6715729 15,18.5 C15,19.3284271 14.3284271,20 13.5,20 L10.5,20 C9.67157288,20 9,19.3284271 9,18.5 C9,17.6715729 9.67157288,17 10.5,17 Z" fill="#000000" opacity="0.3"></path>
    </g>
</svg>
